lib/brands/icons/emporos.svg

<svg xmlns="http://www.w3.org/2000/svg" fill="none" aria-hidden="true" viewBox="0 0 48 48"><g id="emporos-Icon"><g id="Group"><g id="Group_2"><mask id="mask0_94_16965" width="36" height="36" x="6" y="6" maskUnits="userSpaceOnUse" style="mask-type:alpha"><g id="c"><path id="Vector" fill="white" d="M22.5085 6C20.8152 6.00811 19.1304 6.24055 17.4982 6.69125C6.85475 10.0617 3.08991 21.7361 8.52163 32.4604C10.2536 35.7845 13.2365 39.6857 16.8754 41.4155C17.0809 41.52 17.2691 41.6051 17.4386 41.6688C21.144 43.2457 19.9746 38.7861 19.7165 36.8286C19.6736 35.8468 19.6722 34.8033 19.8424 33.863C17.7376 33.4458 15.6458 32.0162 14.2191 30.6572C9.32151 25.8773 9.20319 18.895 14.318 15.1225C15.7628 14.1427 17.366 13.5304 19.246 13.2764C23.59 12.8447 28.1021 14.6997 30.0928 18.4168C31.7555 21.8717 30.2956 25.4193 26.3653 26.4786C24.9227 26.8481 23.3859 26.7194 21.9376 27.0156C19.9781 27.6342 20.4721 29.4623 21.054 30.952C21.1108 31.0662 21.1793 31.1949 21.2526 31.3333C21.7847 30.9693 22.4891 30.7652 23.4184 30.7866C25.9945 31.1153 28.4771 32.201 31.0844 32.4044C38.2196 32.8721 42.6584 27.8037 41.8544 21.1168C40.6532 13.8071 34.205 8.16369 26.7383 6.41862C25.4087 6.15082 24.0565 6.01065 22.7001 6H22.5085V6Z"/></g></mask><g mask="url(#mask0_94_16965)"><path id="Vector_2" fill="url(#paint0_linear_94_16965)" fill-rule="evenodd" d="M22.5085 6C20.8152 6.00811 19.1304 6.24055 17.4982 6.69125C6.85475 10.0617 3.08991 21.7361 8.52163 32.4604C10.2536 35.7845 13.2365 39.6857 16.8754 41.4155C17.0809 41.52 17.2691 41.6051 17.4386 41.6688C21.144 43.2457 19.9746 38.7861 19.7165 36.8286C19.6736 35.8468 19.6722 34.8033 19.8424 33.863C17.7376 33.4458 15.6458 32.0162 14.2191 30.6572C9.32151 25.8773 9.20319 18.895 14.318 15.1225C15.7628 14.1427 17.366 13.5304 19.246 13.2764C23.59 12.8447 28.1021 14.6997 30.0928 18.4168C31.7555 21.8717 30.2956 25.4193 26.3653 26.4786C24.9227 26.8481 23.3859 26.7194 21.9376 27.0156C19.9781 27.6342 20.4721 29.4623 21.054 30.952C21.1108 31.0662 21.1793 31.1949 21.2526 31.3333C21.7847 30.9693 22.4891 30.7652 23.4184 30.7866C25.9945 31.1153 28.4771 32.201 31.0844 32.4044C38.2196 32.8721 42.6584 27.8037 41.8544 21.1168C40.6532 13.8071 34.205 8.16369 26.7383 6.41862C25.4087 6.15082 24.0565 6.01065 22.7001 6H22.5085V6Z" clip-rule="evenodd"/></g></g><g id="Group_3"><mask id="mask1_94_16965" width="29" height="17" x="6" y="6" maskUnits="userSpaceOnUse" style="mask-type:alpha"><g id="e"><path id="Vector_3" fill="white" d="M22.5095 6C20.8162 6.00811 19.1314 6.24055 17.4992 6.69125C10.0698 9.04384 5.9936 15.4429 6.05588 22.7401C7.5489 22.6367 9.03742 22.4762 10.5182 22.2592C10.5888 19.5371 11.8384 16.952 14.319 15.1225C15.7638 14.1427 17.367 13.5304 19.247 13.2764C22.5399 12.9491 25.9297 13.9365 28.245 16.0532C30.9581 14.3109 33.1681 12.2987 34.7457 10.0963C32.3518 8.34384 29.6285 7.09295 26.7393 6.41862C25.4097 6.15082 24.0575 6.01065 22.7012 6H22.5095V6Z"/></g></mask><g mask="url(#mask1_94_16965)"><path id="Vector_4" fill="#0068A6" fill-rule="evenodd" d="M22.5095 6C20.8162 6.00811 19.1314 6.24055 17.4992 6.69125C10.0698 9.04384 5.9936 15.4429 6.05588 22.7401C7.5489 22.6367 9.03742 22.4762 10.5182 22.2592C10.5888 19.5371 11.8384 16.952 14.319 15.1225C15.7638 14.1427 17.367 13.5304 19.247 13.2764C22.5399 12.9491 25.9297 13.9365 28.245 16.0532C30.9581 14.3109 33.1681 12.2987 34.7457 10.0963C32.3518 8.34384 29.6285 7.09295 26.7393 6.41862C25.4097 6.15082 24.0575 6.01065 22.7012 6H22.5095V6Z" clip-rule="evenodd"/></g></g></g></g><defs><linearGradient id="paint0_linear_94_16965" x1="24.0002" x2="24.0002" y1="42" y2="6.07164" gradientUnits="userSpaceOnUse"><stop stop-color="#0095DA"/><stop offset="1" stop-color="#0068A6"/></linearGradient></defs></svg>

<svg xmlns="http://www.w3.org/2000/svg" fill="none" aria-hidden="true" viewBox="0 0 48 48"><mask id="a" width="36" height="36" x="6" y="6" maskUnits="userSpaceOnUse" style="mask-type:alpha"><path fill="#fff" d="M22.508 6a19.17 19.17 0 0 0-5.01.691C6.855 10.061 3.09 21.736 8.522 32.461c1.731 3.324 4.714 7.225 8.353 8.955.206.104.394.19.564.253 3.705 1.577 2.535-2.883 2.277-4.84-.043-.982-.044-2.026.126-2.966-2.105-.417-4.196-1.847-5.623-3.206-4.898-4.78-5.016-11.762.099-15.534 1.445-.98 3.048-1.593 4.928-1.847 4.344-.431 8.856 1.424 10.847 5.14 1.662 3.456.202 7.003-3.728 8.063-1.442.37-2.98.24-4.427.537-1.96.618-1.466 2.446-.884 3.936.057.114.125.243.199.381.532-.364 1.236-.568 2.165-.546 2.576.328 5.059 1.414 7.666 1.617 7.135.468 11.574-4.6 10.77-11.287-1.2-7.31-7.65-12.953-15.116-14.698A21.3 21.3 0 0 0 22.7 6h-.192Z"/></mask><g mask="url(#a)"><path fill="url(#b)" fill-rule="evenodd" d="M22.508 6a19.17 19.17 0 0 0-5.01.691C6.855 10.061 3.09 21.736 8.522 32.461c1.731 3.324 4.714 7.225 8.353 8.955.206.104.394.19.564.253 3.705 1.577 2.535-2.883 2.277-4.84-.043-.982-.044-2.026.126-2.966-2.105-.417-4.196-1.847-5.623-3.206-4.898-4.78-5.016-11.762.099-15.534 1.445-.98 3.048-1.593 4.928-1.847 4.344-.431 8.856 1.424 10.847 5.14 1.662 3.456.202 7.003-3.728 8.063-1.442.37-2.98.24-4.427.537-1.96.618-1.466 2.446-.884 3.936.057.114.125.243.199.381.532-.364 1.236-.568 2.165-.546 2.576.328 5.059 1.414 7.666 1.617 7.135.468 11.574-4.6 10.77-11.287-1.2-7.31-7.65-12.953-15.116-14.698A21.3 21.3 0 0 0 22.7 6h-.192Z" clip-rule="evenodd"/></g><mask id="c" width="29" height="17" x="6" y="6" maskUnits="userSpaceOnUse" style="mask-type:alpha"><path fill="#fff" d="M22.51 6a19.17 19.17 0 0 0-5.011.691c-7.43 2.353-11.506 8.752-11.443 16.05a58.783 58.783 0 0 0 4.462-.482c.07-2.722 1.32-5.307 3.8-7.136 1.446-.98 3.049-1.593 4.929-1.847 3.293-.327 6.683.66 8.998 2.777 2.713-1.742 4.923-3.754 6.5-5.957A22.033 22.033 0 0 0 26.74 6.42 21.3 21.3 0 0 0 22.701 6h-.192Z"/></mask><g mask="url(#c)"><path fill="#0068A6" fill-rule="evenodd" d="M22.51 6a19.17 19.17 0 0 0-5.011.691c-7.43 2.353-11.506 8.752-11.443 16.05a58.783 58.783 0 0 0 4.462-.482c.07-2.722 1.32-5.307 3.8-7.136 1.446-.98 3.049-1.593 4.929-1.847 3.293-.327 6.683.66 8.998 2.777 2.713-1.742 4.923-3.754 6.5-5.957A22.033 22.033 0 0 0 26.74 6.42 21.3 21.3 0 0 0 22.701 6h-.192Z" clip-rule="evenodd"/></g><defs><linearGradient id="b" x1="24" x2="24" y1="42" y2="6.072" gradientUnits="userSpaceOnUse"><stop stop-color="#0095DA"/><stop offset="1" stop-color="#0068A6"/></linearGradient></defs></svg>
